X:1
T: Little Beggarman, The
Z: Dave McGrath
S: https://thesession.org/tunes/566#setting566
R: hornpipe
M: 4/4
L: 1/8
K: Amix
|:"A"EAAG ABcd|efec "D"d2 cd|"A"eAAA ABcA|"G"B=GEF "G"G2 FG|
"A"EAAG ABcd|efec "D"d2 cd|"A"eaaa afed|cA"E"BG "A"A4:|
|:"G"g2 g"G"a gfef|gfec "D"d2 cd|"A"eAAA ABcA|"G"B=GEF G2 FG|
"A"EAAG ABcd|efec "D"d2 cd|"A"eaaa afed|cA"E"BG "A"A4:|

